X: 100
T: No_29_Drum_Song.krn
%%abc-version 2.0
%%abcx-abcm2ps-target-version 5.9.1 (29 Sep 2008)
%%abc-creator hum2abc beta
%%abcx-conversion-date 2020/08/10 18:54:57
%%gracespace 0 6 6
%%humdrum-veritas 577658375
%%humdrum-veritas-data 2202281772
%%linebreak <none>
%%barnumbers 0
L: 1/16
M: 2/4
%%staves {1 2}
V: 1 clef=bass
V: 2 clef=bass
K: C
[V:1] FF [I:setbarnb 1]| 
[V:2] z2 | 
[V:1] F2>F2 F3F | 
[V:2] !accent!G,,4!accent!G,,4 | 
[V:1] F2>F2 E3E | 
[V:2] !accent!G,,4!accent!G,,4 | 
[V:1] E4C4 | 
[V:2] z8 | 
[V:1] E2>E2C4 ||  
[V:2] z8 ||  
[V:1] [M:3/4]A,4A,8 ||  
[V:2] [M:3/4]z12 ||  
[V:1] [M:2/4]A,4A,4- | 
[V:2] [M:2/4]z8 | 
[V:1] A,6EE | 
[V:2] z8 | 
[V:1] E2>E2 C3C | 
[V:2] z8 | 
[V:1] C2>C2 C3C | 
[V:2] z8 | 
[V:1] C2<A,2A,4 | 
[V:2] z8 | 
[V:1] _B,2>B,2C4 ||  
[V:2] z8 ||  
[V:1] [M:3/4]A,4A,6F,F, ||  
[V:2] [M:3/4]z12 ||  
[V:1] [M:2/4]F,2>E,2 E,3E, ||  
[V:2] [M:2/4]z8 ||  
[V:1] [M:3/4]E,2>E,2 E,2>E,2C,4 ||  
[V:2] [M:3/4]z12 ||  
[V:1] [M:2/4]E,2>E,2C,4 ||  
[V:2] [M:2/4]z8 ||  
[V:1] [M:3/4]A,,4A,,8 |]  
[V:2] [M:3/4]z12 |]  


